X: 1
T: Con Carthy's
C: Trad.
M: 12/8
R: Slide
L: 1/8
S: Craig Harrison
K: Bm
|:B2A Bcd B2A F2A|~B3 Bcd efe d2c|B2A Bcd B2A F2G|A2F DEF E6:|
|:f2e d2c B2A F2A|f2e def e3 efg|f2e d2c B2A F2G|A2F DEF E6:|]
